X:217
T:Troopers Quick Step,The. RH.217
R:quickstep
S:Rev.R.Harrison’s MS,c1815,Cumbria
O:England
A:Temple Sowerby,Cumbria
Z:vmp.Simon Wilson. Review PJH, 2008.
M:6/8
L:1/8
Q:3/8=110
K:D
ded dcB|ABc d3|e2g f2a|ecA A3|\
ded dcB|ABc d2E|G2A B2d|AFD D3:|!
|:F2G AFD|d2f ecA|g2f e2d|ecA A2g|\
FGA Bcd|egf edc|dcB A2G|FDD D3:|

